omega/mobile/images/sports/aurl.svg

<svg height="7.11in" viewBox="0 0 711 711" width="7.11in" xmlns="http://www.w3.org/2000/svg"><path d="m49.91 507s-.91-12-.91-12v-28s.91-12 .91-12c2.39-34.23 9.24-67.44 20.09-100 19.56-58.67 50.85-112.66 93.09-158 51.63-55.42 118.8-95.61 190.91-118.02 29.84-9.28 60.81-15.79 92-18.07 0 0 11-.91 11-.91s25-1 25-1 15 1 15 1c26.99.04 63.32 7.95 88 18.86 0 0 21 11.14 21 11.14s-24.31 39-24.31 39c-19.77 30.69-41.55 60.08-63.81 89 0 0-26.47 33-26.47 33-1.92 2.31-9.82 12.24-11.7 13.26-3.59 1.95-7.45-2.97-9.7-5.26 0 0-17.01-17.85-17.01-17.85-3.29-2.78-6.96-4.28-10.43-.72-4.44 4.54-.94 8.93 2.47 12.57 0 0 15.05 16 15.05 16 1.73 1.86 5.97 5.69 6.58 8 .76 2.89-2.23 5.97-3.96 8 0 0-14.71 17-14.71 17-4.48-3.36-9.73-9.72-14-14-2.97-2.97-12.77-13.89-16.04-14.81-4.92-1.37-9.96 3.98-7.9 8.81 1.82 4.27 15.06 17.08 18.94 21 2.16 2.19 7.11 6.7 6.89 10-.23 3.49-11.07 14.12-13.88 17-2.33 2.39-7.83 9.8-11.01 9.8-2.93 0-6.89-4.73-8.72-6.8-3.57-4.04-15.81-17.94-20.28-19.16-4.5-1.22-9.7 3.72-7.45 9.16 1.59 3.86 14.94 16.43 18.87 21 1.38 1.6 4.76 5.11 5.25 7 .91 3.54-4.45 8.64-6.71 11-5.6 5.86-21.19 21.87-26.96 26 0 0-28-28.89-28-28.89-1.38-1.22-3.14-2.77-5-3.15-3.45-.69-7.15 2.72-7.55 6.04-.53 4.33 4.79 9.2 7.55 12 6.06 6.13 18.27 18.39 23 25 0 0-23 20-23 20-5-6.61-11.25-12.03-16.96-18 0 0-7.13-7.96-7.13-7.96-3.11-3.13-7.39-6.6-11.77-3.44-6.07 4.38-1.77 9.46 1.84 13.4 0 0 16.02 17 16.02 17 1.74 1.74 6.09 5.73 6.66 8 .81 3.19-2.6 5.6-4.66 7.42 0 0-18 16.21-18 16.21-4.64 3.06-7.82-1.33-10.83-4.63 0 0-23.45-24.29-23.45-24.29-5.86-4.2-12.2 1.21-10.88 6.29.67 2.55 4.51 6.98 6.33 9 0 0 16.41 17 16.41 17 2 2.31 6.9 6.79 6.08 10-.7 2.78-10.06 10.34-12.66 12.58 0 0-34 29-34 29-29.81 25.18-60.78 49.38-92 72.79 0 0-54 38.63-54 38.63-25.77-31.74-36.28-70.84-39.09-111zm585.94-388c11.17 15.39 20.77 37.56 25.52 56 18.17 70.61 10.45 148.97-14.69 217-22.03 59.61-57.06 114.48-103.68 157.91-50.96 47.48-114.19 81.47-181 100.51-33.59 9.58-63.26 14.29-98 16.67 0 0-12 .91-12 .91-44.22.07-91.34-3.81-131-25.31-6.59-3.57-11.93-7.39-18-11.69v-2s50-36.13 50-36.13 91-71.95 91-71.95 52-43.92 52-43.92 15.91 16 15.91 16c3.04 3.26 6.43 7.92 10.09 10.34 6.63 4.36 11.05-2.06 11-5.34-.05-3.56-4.57-7.49-6.83-10 0 0-19.17-21-19.17-21s28-25 28-25 27.17 28.34 27.17 28.34c6.38 4.65 11.54-1.45 11.29-5.34-.17-2.73-3.17-5.97-4.89-8 0 0-15.53-16-15.53-16-2.18-2.28-6.67-6.52-5.72-10 .74-2.67 8.38-9.7 10.68-12 3.26-3.25 5.21-5.29 9-8 0 0 13.83 14 13.83 14 3.38 3.73 9.03 10.76 13.17 13.26 6.35 3.84 11.89-2.03 10.22-7.26-1-3.12-4.92-6.62-7.18-9 0 0-11.04-12-11.04-12-1.95-1.97-6.8-6.15-6.8-9 0-2.96 5.71-7.91 7.8-10 0 0 26-26 26-26s30 30.57 30 30.57c7.37 5.31 12.27-2.46 11.16-6.57-.94-3.45-7.48-9.27-10.15-12 0 0-21.01-23-21.01-23s18.72-20 18.72-20c1.81-2.05 5.24-6.8 8.19-6.8 2.46 0 6.37 5.03 8.1 6.8 0 0 12.82 13 12.82 13 2.61 2.88 5.66 7.12 9.17 8.82 6.11 2.96 12.6-3.42 8.45-9.82-6.27-9.67-22.32-21.51-28.45-32 0 0 21-23 21-23s22 23 22 23c2.35 2.35 6.86 7.3 10 8.16 4.57 1.24 8.87-3.78 7.78-8.16-.93-3.75-6.99-9.2-9.78-12 0 0-21-23-21-23s30.6-37 30.6-37c24.55-30.69 47.77-62.42 69.73-95 0 0 28.67-45 28.67-45 7.26 3.43 12.23 10.64 16.85 17z"/></svg>

<?xml version="1.0" encoding="UTF-8" standalone="no"?>
<!DOCTYPE svg PUBLIC "-//W3C//DTD SVG 20010904//EN"
              "http://www.w3.org/TR/2001/REC-SVG-20010904/DTD/svg10.dtd">

<svg xmlns="http://www.w3.org/2000/svg"
     width="7.11in" height="7.11in"
     viewBox="0 0 711 711">
  <path id="Selection"
        fill="black" 
        d="M 49.91,507.00
           C 49.91,507.00 49.00,495.00 49.00,495.00
             49.00,495.00 49.00,467.00 49.00,467.00
             49.00,467.00 49.91,455.00 49.91,455.00
             52.30,420.77 59.15,387.56 70.00,355.00
             89.56,296.33 120.85,242.34 163.09,197.00
             214.72,141.58 281.89,101.39 354.00,78.98
             383.84,69.70 414.81,63.19 446.00,60.91
             446.00,60.91 457.00,60.00 457.00,60.00
             457.00,60.00 482.00,59.00 482.00,59.00
             482.00,59.00 497.00,60.00 497.00,60.00
             523.99,60.04 560.32,67.95 585.00,78.86
             585.00,78.86 606.00,90.00 606.00,90.00
             606.00,90.00 581.69,129.00 581.69,129.00
             561.92,159.69 540.14,189.08 517.88,218.00
             517.88,218.00 491.41,251.00 491.41,251.00
             489.49,253.31 481.59,263.24 479.71,264.26
             476.12,266.21 472.26,261.29 470.01,259.00
             470.01,259.00 453.00,241.15 453.00,241.15
             449.71,238.37 446.04,236.87 442.57,240.43
             438.13,244.97 441.63,249.36 445.04,253.00
             445.04,253.00 460.09,269.00 460.09,269.00
             461.82,270.86 466.06,274.69 466.67,277.00
             467.43,279.89 464.44,282.97 462.71,285.00
             462.71,285.00 448.00,302.00 448.00,302.00
             443.52,298.64 438.27,292.28 434.00,288.00
             431.03,285.03 421.23,274.11 417.96,273.19
             413.04,271.82 408.00,277.17 410.06,282.00
             411.88,286.27 425.12,299.08 429.00,303.00
             431.16,305.19 436.11,309.70 435.89,313.00
             435.66,316.49 424.82,327.12 422.01,330.00
             419.68,332.39 414.18,339.80 411.00,339.80
             408.07,339.80 404.11,335.07 402.28,333.00
             398.71,328.96 386.47,315.06 382.00,313.84
             377.50,312.62 372.30,317.56 374.55,323.00
             376.14,326.86 389.49,339.43 393.42,344.00
             394.80,345.60 398.18,349.11 398.67,351.00
             399.58,354.54 394.22,359.64 391.96,362.00
             386.36,367.86 370.77,383.87 365.00,388.00
             365.00,388.00 337.00,359.11 337.00,359.11
             335.62,357.89 333.86,356.34 332.00,355.96
             328.55,355.27 324.85,358.68 324.45,362.00
             323.92,366.33 329.24,371.20 332.00,374.00
             338.06,380.13 350.27,392.39 355.00,399.00
             355.00,399.00 332.00,419.00 332.00,419.00
             327.00,412.39 320.75,406.97 315.04,401.00
             315.04,401.00 307.91,393.04 307.91,393.04
             304.80,389.91 300.52,386.44 296.14,389.60
             290.07,393.98 294.37,399.06 297.98,403.00
             297.98,403.00 314.00,420.00 314.00,420.00
             315.74,421.74 320.09,425.73 320.66,428.00
             321.47,431.19 318.06,433.60 316.00,435.42
             316.00,435.42 298.00,451.63 298.00,451.63
             293.36,454.69 290.18,450.30 287.17,447.00
             287.17,447.00 263.72,422.71 263.72,422.71
             257.86,418.51 251.52,423.92 252.84,429.00
             253.51,431.55 257.35,435.98 259.17,438.00
             259.17,438.00 275.58,455.00 275.58,455.00
             277.58,457.31 282.48,461.79 281.66,465.00
             280.96,467.78 271.60,475.34 269.00,477.58
             269.00,477.58 235.00,506.58 235.00,506.58
             205.19,531.76 174.22,555.96 143.00,579.37
             143.00,579.37 89.00,618.00 89.00,618.00
             63.23,586.26 52.72,547.16 49.91,507.00 Z
           M 635.85,119.00
           C 647.02,134.39 656.62,156.56 661.37,175.00
             679.54,245.61 671.82,323.97 646.68,392.00
             624.65,451.61 589.62,506.48 543.00,549.91
             492.04,597.39 428.81,631.38 362.00,650.42
             328.41,660.00 298.74,664.71 264.00,667.09
             264.00,667.09 252.00,668.00 252.00,668.00
             207.78,668.07 160.66,664.19 121.00,642.69
             114.41,639.12 109.07,635.30 103.00,631.00
             103.00,631.00 103.00,629.00 103.00,629.00
             103.00,629.00 153.00,592.87 153.00,592.87
             153.00,592.87 244.00,520.92 244.00,520.92
             244.00,520.92 296.00,477.00 296.00,477.00
             296.00,477.00 311.91,493.00 311.91,493.00
             314.95,496.26 318.34,500.92 322.00,503.34
             328.63,507.70 333.05,501.28 333.00,498.00
             332.95,494.44 328.43,490.51 326.17,488.00
             326.17,488.00 307.00,467.00 307.00,467.00
             307.00,467.00 335.00,442.00 335.00,442.00
             335.00,442.00 362.17,470.34 362.17,470.34
             368.55,474.99 373.71,468.89 373.46,465.00
             373.29,462.27 370.29,459.03 368.57,457.00
             368.57,457.00 353.04,441.00 353.04,441.00
             350.86,438.72 346.37,434.48 347.32,431.00
             348.06,428.33 355.70,421.30 358.00,419.00
             361.26,415.75 363.21,413.71 367.00,411.00
             367.00,411.00 380.83,425.00 380.83,425.00
             384.21,428.73 389.86,435.76 394.00,438.26
             400.35,442.10 405.89,436.23 404.22,431.00
             403.22,427.88 399.30,424.38 397.04,422.00
             397.04,422.00 386.00,410.00 386.00,410.00
             384.05,408.03 379.20,403.85 379.20,401.00
             379.20,398.04 384.91,393.09 387.00,391.00
             387.00,391.00 413.00,365.00 413.00,365.00
             413.00,365.00 443.00,395.57 443.00,395.57
             450.37,400.88 455.27,393.11 454.16,389.00
             453.22,385.55 446.68,379.73 444.01,377.00
             444.01,377.00 423.00,354.00 423.00,354.00
             423.00,354.00 441.72,334.00 441.72,334.00
             443.53,331.95 446.96,327.20 449.91,327.20
             452.37,327.20 456.28,332.23 458.01,334.00
             458.01,334.00 470.83,347.00 470.83,347.00
             473.44,349.88 476.49,354.12 480.00,355.82
             486.11,358.78 492.60,352.40 488.45,346.00
             482.18,336.33 466.13,324.49 460.00,314.00
             460.00,314.00 481.00,291.00 481.00,291.00
             481.00,291.00 503.00,314.00 503.00,314.00
             505.35,316.35 509.86,321.30 513.00,322.16
             517.57,323.40 521.87,318.38 520.78,314.00
             519.85,310.25 513.79,304.80 511.00,302.00
             511.00,302.00 490.00,279.00 490.00,279.00
             490.00,279.00 520.60,242.00 520.60,242.00
             545.15,211.31 568.37,179.58 590.33,147.00
             590.33,147.00 619.00,102.00 619.00,102.00
             626.26,105.43 631.23,112.64 635.85,119.00 Z" />
</svg>
